public/logos/resend.svg

<svg xmlns="http://www.w3.org/2000/svg" width="82" height="20" viewBox="0 0 82 20" fill="none">
<g clip-path="url(#clip0_36_181)">
<path d="M1.02515 18.75V1.25H8.77515C9.85849 1.25 10.8418 1.5 11.7251 2C12.6084 2.48334 13.3002 3.14166 13.8002 3.975C14.3168 4.80834 14.5752 5.75834 14.5752 6.825C14.5752 7.875 14.3168 8.83334 13.8002 9.7C13.3002 10.55 12.6084 11.225 11.7251 11.725C10.8418 12.225 9.85849 12.475 8.77515 12.475H4.65015V18.75H1.02515ZM10.9501 18.75L6.50015 10.85L10.3501 10.225L15.3002 18.775L10.9501 18.75ZM4.65015 9.425H8.60015C9.05015 9.425 9.44181 9.325 9.77515 9.125C10.1251 8.90834 10.3918 8.61666 10.5751 8.25C10.7585 7.86667 10.8501 7.44167 10.8501 6.975C10.8501 6.475 10.7418 6.04167 10.5251 5.675C10.3085 5.30834 9.99181 5.025 9.57515 4.825C9.15849 4.60834 8.67515 4.5 8.12515 4.5H4.65015V9.425Z" fill="white"/>
<path d="M22.5666 19.0001C21.1333 19.0001 19.8749 18.7085 18.7915 18.1251C17.7249 17.5417 16.8916 16.7417 16.2915 15.7251C15.7083 14.7085 15.4165 13.5417 15.4165 12.2251C15.4165 11.1918 15.5833 10.2501 15.9165 9.4001C16.2499 8.5501 16.7165 7.81677 17.3165 7.2001C17.9165 6.56677 18.6249 6.08344 19.4416 5.7501C20.2749 5.4001 21.1749 5.2251 22.1416 5.2251C23.0416 5.2251 23.8749 5.39177 24.6416 5.7251C25.4083 6.05844 26.0666 6.5251 26.6166 7.1251C27.1833 7.70844 27.6166 8.40844 27.9166 9.2251C28.2166 10.0251 28.3499 10.8918 28.3166 11.8251L28.2916 12.9251H17.6666L17.0915 10.7501H25.3666L24.9666 11.2001V10.6501C24.9333 10.2001 24.7833 9.8001 24.5165 9.4501C24.2666 9.08344 23.9416 8.8001 23.5416 8.6001C23.1416 8.38344 22.6915 8.2751 22.1915 8.2751C21.4583 8.2751 20.8333 8.41677 20.3165 8.7001C19.8165 8.98344 19.4333 9.4001 19.1665 9.9501C18.8999 10.5001 18.7665 11.1668 18.7665 11.9501C18.7665 12.7501 18.9333 13.4417 19.2666 14.0251C19.6166 14.6085 20.0999 15.0667 20.7166 15.4001C21.3499 15.7167 22.0915 15.8751 22.9415 15.8751C23.5249 15.8751 24.0583 15.7835 24.5416 15.6001C25.0249 15.4167 25.5415 15.1001 26.0916 14.6501L27.7916 17.0251C27.3083 17.4585 26.7749 17.8251 26.1916 18.1251C25.6083 18.4085 25.0083 18.6251 24.3915 18.7751C23.7749 18.9251 23.1666 19.0001 22.5666 19.0001Z" fill="white"/>
<path d="M34.1403 19C32.9069 19 31.8069 18.8 30.8403 18.4C29.8903 17.9834 29.1237 17.4166 28.5403 16.7L30.7653 14.8C31.2653 15.35 31.8319 15.75 32.4653 16C33.0987 16.2334 33.7319 16.35 34.3653 16.35C34.6153 16.35 34.8403 16.325 35.0403 16.275C35.2569 16.2084 35.4403 16.125 35.5903 16.025C35.7403 15.9084 35.8487 15.775 35.9153 15.625C35.9987 15.4584 36.0403 15.2834 36.0403 15.1C36.0403 14.7334 35.8903 14.45 35.5903 14.25C35.4237 14.15 35.1653 14.0416 34.8153 13.925C34.4653 13.7916 34.0153 13.65 33.4653 13.5C32.6153 13.2834 31.8903 13.0334 31.2903 12.75C30.7069 12.45 30.2403 12.1167 29.8903 11.75C29.5903 11.4 29.3569 11.025 29.1903 10.625C29.0403 10.2083 28.9653 9.75 28.9653 9.25C28.9653 8.65 29.0987 8.10834 29.3653 7.625C29.6319 7.125 29.9987 6.7 30.4653 6.35C30.9487 6 31.4987 5.73334 32.1153 5.55C32.7319 5.35 33.3819 5.25 34.0653 5.25C34.7487 5.25 35.4153 5.33334 36.0653 5.5C36.7153 5.66668 37.3153 5.90834 37.8653 6.225C38.4319 6.525 38.9237 6.88334 39.3403 7.3L37.4403 9.4C37.1403 9.11666 36.7987 8.85834 36.4153 8.625C36.0487 8.39168 35.6653 8.20834 35.2653 8.075C34.8653 7.94168 34.5069 7.875 34.1903 7.875C33.9069 7.875 33.6487 7.9 33.4153 7.95C33.1987 8 33.0153 8.08334 32.8653 8.2C32.7153 8.3 32.5987 8.425 32.5153 8.575C32.4487 8.725 32.4153 8.89166 32.4153 9.075C32.4153 9.25834 32.4569 9.43334 32.5403 9.6C32.6403 9.76668 32.7737 9.90834 32.9403 10.025C33.1237 10.125 33.3903 10.2417 33.7403 10.375C34.1069 10.5083 34.5987 10.6583 35.2153 10.825C36.0153 11.0417 36.6903 11.2833 37.2403 11.55C37.8069 11.8167 38.2569 12.125 38.5903 12.475C38.8737 12.775 39.0819 13.1166 39.2153 13.5C39.3487 13.8834 39.4153 14.3084 39.4153 14.775C39.4153 15.5916 39.1819 16.3166 38.7153 16.95C38.2653 17.5834 37.6403 18.0834 36.8403 18.45C36.0403 18.8166 35.1403 19 34.1403 19Z" fill="white"/>
<path d="M46.971 19.0001C45.5377 19.0001 44.2794 18.7085 43.196 18.1251C42.1294 17.5417 41.296 16.7417 40.696 15.7251C40.1127 14.7085 39.821 13.5417 39.821 12.2251C39.821 11.1918 39.9877 10.2501 40.321 9.4001C40.6544 8.5501 41.121 7.81677 41.721 7.2001C42.321 6.56677 43.0294 6.08344 43.846 5.7501C44.6794 5.4001 45.5794 5.2251 46.546 5.2251C47.446 5.2251 48.2794 5.39177 49.046 5.7251C49.8127 6.05844 50.471 6.5251 51.021 7.1251C51.5877 7.70844 52.021 8.40844 52.321 9.2251C52.621 10.0251 52.7544 10.8918 52.721 11.8251L52.696 12.9251H42.071L41.496 10.7501H49.771L49.371 11.2001V10.6501C49.3377 10.2001 49.1877 9.8001 48.921 9.4501C48.671 9.08344 48.346 8.8001 47.946 8.6001C47.546 8.38344 47.096 8.2751 46.596 8.2751C45.8627 8.2751 45.2377 8.41677 44.721 8.7001C44.221 8.98344 43.8377 9.4001 43.571 9.9501C43.3044 10.5001 43.171 11.1668 43.171 11.9501C43.171 12.7501 43.3377 13.4417 43.671 14.0251C44.021 14.6085 44.5044 15.0667 45.121 15.4001C45.7544 15.7167 46.496 15.8751 47.346 15.8751C47.9294 15.8751 48.4627 15.7835 48.946 15.6001C49.4294 15.4167 49.946 15.1001 50.496 14.6501L52.196 17.0251C51.7127 17.4585 51.1794 17.8251 50.596 18.1251C50.0127 18.4085 49.4127 18.6251 48.796 18.7751C48.1794 18.9251 47.571 19.0001 46.971 19.0001Z" fill="white"/>
<path d="M54.0945 18.75V5.525H57.4945L57.5945 8.225L56.8945 8.525C57.0779 7.925 57.4029 7.38334 57.8695 6.9C58.3529 6.4 58.9279 6 59.5945 5.7C60.2612 5.4 60.9612 5.25 61.6945 5.25C62.6945 5.25 63.5279 5.45 64.1945 5.85C64.8779 6.25 65.3862 6.85834 65.7195 7.675C66.0695 8.475 66.2445 9.46668 66.2445 10.65V18.75H62.6945V10.925C62.6945 10.325 62.6112 9.825 62.4445 9.425C62.2779 9.025 62.0195 8.73334 61.6695 8.55C61.3362 8.36666 60.9195 8.28334 60.4195 8.3C60.0195 8.3 59.6445 8.36668 59.2945 8.5C58.9612 8.61666 58.6695 8.79167 58.4195 9.025C58.1862 9.25834 57.9945 9.525 57.8445 9.825C57.7112 10.125 57.6445 10.45 57.6445 10.8V18.75H55.8945C55.5112 18.75 55.1695 18.75 54.8695 18.75C54.5695 18.75 54.3112 18.75 54.0945 18.75Z" fill="white"/>
<path d="M73.571 19C72.4044 19 71.3627 18.7084 70.446 18.125C69.546 17.525 68.8294 16.7166 68.296 15.7C67.7794 14.6666 67.521 13.475 67.521 12.125C67.521 10.8083 67.7794 9.63333 68.296 8.6C68.8294 7.55 69.546 6.73333 70.446 6.15C71.3627 5.55 72.4044 5.25 73.571 5.25C74.1877 5.25 74.7794 5.35 75.346 5.55C75.9294 5.73333 76.446 5.99167 76.896 6.325C77.3627 6.65833 77.7377 7.03333 78.021 7.45C78.3044 7.85 78.4627 8.26667 78.496 8.7L77.596 8.875V0.25H81.171V18.75H77.796L77.646 15.7L78.346 15.775C78.3127 16.1916 78.1627 16.5916 77.896 16.975C77.6294 17.3584 77.271 17.7084 76.821 18.025C76.3877 18.325 75.8877 18.5666 75.321 18.75C74.771 18.9166 74.1877 19 73.571 19ZM74.371 16.05C75.0377 16.05 75.621 15.8834 76.121 15.55C76.621 15.2166 77.0127 14.7584 77.296 14.175C77.5794 13.5916 77.721 12.9084 77.721 12.125C77.721 11.3583 77.5794 10.6833 77.296 10.1C77.0127 9.51667 76.621 9.05833 76.121 8.725C75.621 8.39167 75.0377 8.225 74.371 8.225C73.7044 8.225 73.121 8.39167 72.621 8.725C72.1377 9.05833 71.7544 9.51667 71.471 10.1C71.2044 10.6833 71.071 11.3583 71.071 12.125C71.071 12.9084 71.2044 13.5916 71.471 14.175C71.7544 14.7584 72.1377 15.2166 72.621 15.55C73.121 15.8834 73.7044 16.05 74.371 16.05Z" fill="white"/>
</g>
<defs>
<clipPath id="clip0_36_181">
<rect width="81.25" height="20" fill="white"/>
</clipPath>
</defs>
</svg>

<svg xmlns="http://www.w3.org/2000/svg" width="82" height="20" fill="none"><g fill="#fff" clip-path="url(#a)"><path d="M1.025 18.75V1.25h7.75q1.625 0 2.95.75A5.4 5.4 0 0 1 13.8 3.975q.775 1.25.775 2.85A5.5 5.5 0 0 1 13.8 9.7a5.5 5.5 0 0 1-2.075 2.025q-1.325.75-2.95.75H4.65v6.275zm9.925 0-4.45-7.9 3.85-.625 4.95 8.55zm-6.3-9.325H8.6q.675 0 1.175-.3.525-.325.8-.875.275-.575.275-1.275 0-.75-.325-1.3a2.15 2.15 0 0 0-.95-.85Q8.95 4.5 8.125 4.5H4.65zM22.567 19q-2.15 0-3.776-.875a6.4 6.4 0 0 1-2.5-2.4q-.875-1.524-.875-3.5 0-1.55.5-2.825t1.4-2.2a6 6 0 0 1 2.126-1.45 6.9 6.9 0 0 1 2.7-.525q1.35 0 2.5.5t1.975 1.4a5.9 5.9 0 0 1 1.3 2.1q.45 1.2.4 2.6l-.025 1.1H17.667l-.576-2.175h8.276l-.4.45v-.55a2.2 2.2 0 0 0-.45-1.2 2.53 2.53 0 0 0-.975-.85q-.6-.325-1.35-.325-1.101 0-1.875.425-.75.425-1.15 1.25t-.4 2q0 1.2.5 2.075.525.875 1.45 1.375.95.475 2.225.475.874 0 1.6-.275.725-.275 1.55-.95l1.7 2.375q-.726.65-1.6 1.1-.876.425-1.8.65a7.7 7.7 0 0 1-1.825.225M34.14 19q-1.85 0-3.3-.6-1.425-.625-2.3-1.7l2.225-1.9q.75.825 1.7 1.2.95.35 1.9.35.375 0 .675-.075.325-.1.55-.25.225-.175.325-.4.126-.25.125-.525 0-.55-.45-.85-.25-.15-.775-.325-.525-.2-1.35-.425-1.275-.326-2.175-.75-.875-.45-1.4-1-.45-.525-.7-1.125a4 4 0 0 1-.225-1.375q0-.9.4-1.625.4-.75 1.1-1.275a5.4 5.4 0 0 1 1.65-.8 6.3 6.3 0 0 1 1.95-.3q1.025 0 2 .25t1.8.725q.85.45 1.475 1.075l-1.9 2.1a6 6 0 0 0-1.025-.775 5.2 5.2 0 0 0-1.15-.55q-.6-.2-1.075-.2-.424 0-.775.075-.325.075-.55.25-.224.15-.35.375A1.22 1.22 0 0 0 32.54 9.6q.15.25.4.425.276.15.8.35.55.2 1.475.45 1.2.325 2.025.725.85.4 1.35.925.426.45.625 1.025.2.575.2 1.275 0 1.226-.7 2.175-.675.95-1.875 1.5t-2.7.55M46.971 19q-2.15 0-3.775-.875a6.4 6.4 0 0 1-2.5-2.4q-.875-1.524-.875-3.5 0-1.55.5-2.825t1.4-2.2a6 6 0 0 1 2.125-1.45 6.9 6.9 0 0 1 2.7-.525q1.35 0 2.5.5t1.975 1.4a5.9 5.9 0 0 1 1.3 2.1q.45 1.2.4 2.6l-.025 1.1H42.071l-.575-2.175h8.275l-.4.45v-.55a2.2 2.2 0 0 0-.45-1.2 2.53 2.53 0 0 0-.975-.85q-.6-.325-1.35-.325-1.1 0-1.875.425-.75.425-1.15 1.25t-.4 2q0 1.2.5 2.075.525.875 1.45 1.375.95.475 2.225.475.875 0 1.6-.275t1.55-.95l1.7 2.375q-.725.65-1.6 1.1-.875.425-1.8.65a7.7 7.7 0 0 1-1.825.225M54.095 18.75V5.525h3.4l.1 2.7-.7.3q.275-.9.974-1.625.726-.75 1.725-1.2a5.1 5.1 0 0 1 2.1-.45q1.5 0 2.5.6 1.026.6 1.525 1.825.525 1.2.526 2.975v8.1h-3.55v-7.825q0-.9-.25-1.5t-.776-.875q-.5-.275-1.25-.25-.6 0-1.124.2a2.5 2.5 0 0 0-.876.525q-.349.35-.575.8-.2.45-.2.975v7.95h-3.55M73.571 19q-1.75 0-3.125-.875-1.35-.9-2.15-2.425-.775-1.55-.775-3.575 0-1.976.775-3.525.8-1.575 2.15-2.45 1.375-.9 3.125-.9.925 0 1.775.3.875.275 1.55.775.7.5 1.125 1.125.425.6.475 1.25l-.9.175V.25h3.575v18.5h-3.375l-.15-3.05.7.075a2.4 2.4 0 0 1-.45 1.2 4.3 4.3 0 0 1-1.075 1.05 5.7 5.7 0 0 1-1.5.725q-.825.25-1.75.25m.8-2.95q1 0 1.75-.5t1.175-1.375.425-2.05q0-1.15-.425-2.025a3.4 3.4 0 0 0-1.175-1.375q-.75-.5-1.75-.5t-1.75.5q-.725.5-1.15 1.375-.4.874-.4 2.025 0 1.175.4 2.05.425.875 1.15 1.375.75.5 1.75.5"/></g><defs><clipPath id="a"><path fill="#fff" d="M0 0h81.25v20H0z"/></clipPath></defs></svg>
